X: 1
T: Paquito El Chocolatero
M: 2/4
L: 1/8
R: polka
K: Dmix
D A2 A|BcB(c|c)BA2|D A2 A|BcB(c|c)A G2|
D G2 G|A B2 A| B2 AG|D G2 G|ABcd2||
